build-source/logos/bid.default.svg

<svg xmlns="http://www.w3.org/2000/svg" viewBox="0 0 200 162.07"><defs><clipPath><path d="m499.28 171.6h37.14v16.806h-37.14v-16.806"/></clipPath></defs><path d="m.37 22.736c-2.755-1.219-5.51-2.438-8.265-3.658-.102-.045-.196-.104-.28-.176-.084-.072-.158-.156-.219-.25-.061-.095-.109-.199-.142-.311-.033-.113-.051-.233-.051-.359v-13.468c0-.126.018-.247.051-.359.033-.112.081-.217.142-.311.061-.095.135-.179.219-.25.084-.072.178-.132.28-.177 2.755-1.219 5.51-2.438 8.265-3.658" fill="#d93123" transform="matrix(6.96546 0 0-6.96546 60.01 159.39)"/><path d="m0 0c.13-.021.252-.08.364-.17.111-.089.21-.208.293-.348.083-.139.15-.301.196-.475.046-.174.072-.362.072-.555v-14.296c0-.193-.026-.38-.072-.554-.046-.175-.113-.336-.196-.476-.083-.14-.182-.259-.293-.348-.112-.089-.234-.149-.364-.17l-17.978-2.89c-.232-.037-.453-.019-.656.045-.204.065-.389.177-.545.327-.157.151-.284.34-.372.559-.089.219-.138.468-.138.736v19.839c0 .268.049.516.138.736.088.218.215.408.372.559.156.15.341.262.545.327.203.064.424.082.656.044l17.978-2.89" fill="#f25d1c" transform="matrix(6.96546 0 0-6.96546 193.36 20.471)"/><g fill="#fff"><path d="m0 0v.025c0 .293-.034.559-.096.794-.063.235-.152.439-.264.606-.111.168-.244.299-.392.387-.149.089-.313.134-.485.13-.173-.004-.34-.057-.494-.153-.155-.097-.295-.238-.415-.417-.12-.18-.218-.398-.286-.649-.068-.251-.106-.534-.106-.843v-.027c0-.305.038-.582.106-.825.068-.242.166-.449.286-.616.12-.166.26-.292.415-.373.154-.079.321-.114.494-.098.172.015.336.079.485.185.148.106.281.252.392.432.112.18.201.394.264.637.062.242.096.512.096.805m-.018 6.087l1.383-.066v-9.371l-1.383-.164v1.013c-.087-.173-.182-.337-.287-.487-.106-.151-.223-.288-.352-.405-.13-.119-.273-.218-.432-.293-.16-.077-.335-.129-.529-.152-.309-.037-.618.009-.908.139-.293.131-.567.348-.802.648-.238.303-.435.689-.574 1.159-.14.471-.219 1.024-.219 1.655 0 .637.078 1.203.216 1.695.137.489.333.901.569 1.233.234.329.507.577.801.742.291.164.603.246.917.244.198 0 .377-.033.538-.089.161-.056.304-.136.434-.234.128-.097.244-.211.348-.337.103-.125.195-.261.28-.401v3.471z" transform="matrix(6.96546 0 0-6.96546 166.35 104.27)"/><path d="m0 0v7.795l1.687-.006v-7.59l-1.687-.199" transform="matrix(6.96546 0 0-6.96546 123.5 133.79)"/><path d="m0 0l1.776-.084v-1.911l-1.776.03v1.965" transform="matrix(6.96546 0 0-6.96546 123.18 59.831)"/><path d="m0 0v.029c0 .334-.046.639-.128.907-.082.269-.202.501-.349.692-.148.191-.325.341-.52.441-.197.101-.413.152-.639.147-.228-.006-.447-.068-.649-.181-.203-.113-.387-.277-.543-.484-.157-.209-.285-.461-.374-.749-.089-.288-.138-.612-.138-.964v-.03c0-.352.049-.67.138-.949.089-.278.217-.515.374-.705.156-.19.34-.333.543-.423.202-.089.421-.126.649-.105.226.02.442.095.639.218.195.121.372.289.52.496.147.207.267.453.349.732.082.278.128.59.128.928m-1.14 4.201c.391-.002.774-.097 1.126-.279.348-.18.667-.445.937-.791.268-.344.488-.767.64-1.269.152-.498.238-1.076.238-1.731 0-.661-.084-1.253-.234-1.773-.151-.523-.369-.974-.635-1.349-.268-.379-.586-.682-.936-.902-.353-.223-.739-.362-1.136-.41-.257-.031-.49-.024-.703.015-.215.038-.409.109-.587.202-.177.093-.338.211-.484.344-.146.134-.279.283-.399.441v-1.106l-2.104-.248v11.872l2.104-.1v-4.277c.124.198.259.384.408.55.149.166.311.312.49.433.178.12.371.216.584.281.211.064.441.099.691.097" transform="matrix(6.96546 0 0-6.96546 108.4 107.61)"/></g></svg>

<?xml version="1.0" encoding="UTF-8" standalone="no"?>
<!-- Created with Inkscape (http://www.inkscape.org/) -->

<svg
   xmlns:dc="http://purl.org/dc/elements/1.1/"
   xmlns:cc="http://creativecommons.org/ns#"
   xmlns:rdf="http://www.w3.org/1999/02/22-rdf-syntax-ns#"
   xmlns:svg="http://www.w3.org/2000/svg"
   xmlns="http://www.w3.org/2000/svg"
   xmlns:inkscape="http://www.inkscape.org/namespaces/inkscape"
   version="1.1"
   width="200"
   height="162.07361"
   id="svg9180">
  <defs
     id="defs9182">
    <clipPath
       id="clipPath11063">
      <path
         d="m 499.278,171.603 37.136,0 0,16.806 -37.136,0 0,-16.806 z"
         inkscape:connector-curvature="0"
         id="path11065" />
    </clipPath>
  </defs>
  <metadata
     id="metadata9185">
    <rdf:RDF>
      <cc:Work
         rdf:about="">
        <dc:format>image/svg+xml</dc:format>
        <dc:type
           rdf:resource="http://purl.org/dc/dcmitype/StillImage" />
        <dc:title />
      </cc:Work>
    </rdf:RDF>
  </metadata>
  <g
     transform="translate(-327.85718,-511.30087)"
     id="layer1">
    <g
       transform="matrix(6.9654554,0,0,-6.9654554,-3179.1729,1165.0469)"
       id="g14927">
      <g
         transform="translate(512.1047,70.9736)"
         id="g10965">
        <path
           d="m 0.37,22.736 c -2.755,-1.219 -5.51,-2.438 -8.265,-3.658 -0.102,-0.045 -0.196,-0.104 -0.28,-0.176 -0.084,-0.072 -0.158,-0.156 -0.219,-0.25 -0.061,-0.095 -0.109,-0.199 -0.142,-0.311 -0.033,-0.113 -0.051,-0.233 -0.051,-0.359 l 0,-13.468 c 0,-0.126 0.018,-0.247 0.051,-0.359 0.033,-0.112 0.081,-0.217 0.142,-0.311 0.061,-0.095 0.135,-0.179 0.219,-0.25 0.084,-0.072 0.178,-0.132 0.28,-0.177 2.755,-1.219 5.51,-2.438 8.265,-3.658"
           inkscape:connector-curvature="0"
           id="path10967"
           style="fill:#d93123;fill-opacity:1;fill-rule:nonzero;stroke:none" />
      </g>
      <g
         transform="translate(531.2484,90.917)"
         id="g10961">
        <path
           d="m 0,0 c 0.13,-0.021 0.252,-0.08 0.364,-0.17 0.111,-0.089 0.21,-0.208 0.293,-0.348 0.083,-0.139 0.15,-0.301 0.196,-0.475 0.046,-0.174 0.072,-0.362 0.072,-0.555 l 0,-14.296 c 0,-0.193 -0.026,-0.38 -0.072,-0.554 C 0.807,-16.573 0.74,-16.734 0.657,-16.874 0.574,-17.014 0.475,-17.133 0.364,-17.222 0.252,-17.311 0.13,-17.371 0,-17.392 l -17.978,-2.89 c -0.232,-0.037 -0.453,-0.019 -0.656,0.045 -0.204,0.065 -0.389,0.177 -0.545,0.327 -0.157,0.151 -0.284,0.34 -0.372,0.559 -0.089,0.219 -0.138,0.468 -0.138,0.736 l 0,19.839 c 0,0.268 0.049,0.516 0.138,0.736 0.088,0.218 0.215,0.408 0.372,0.559 0.156,0.15 0.341,0.262 0.545,0.327 0.203,0.064 0.424,0.082 0.656,0.044 L 0,0 z"
           inkscape:connector-curvature="0"
           id="path10963"
           style="fill:#f25d1c;fill-opacity:1;fill-rule:nonzero;stroke:none" />
      </g>
      <g
         transform="translate(527.3713,78.8859)"
         id="g10969">
        <path
           d="M 0,0 0,0.025 C 0,0.318 -0.034,0.584 -0.096,0.819 -0.159,1.054 -0.248,1.258 -0.36,1.425 -0.471,1.593 -0.604,1.724 -0.752,1.812 -0.901,1.901 -1.065,1.946 -1.237,1.942 -1.41,1.938 -1.577,1.885 -1.731,1.789 -1.886,1.692 -2.026,1.551 -2.146,1.372 -2.266,1.192 -2.364,0.974 -2.432,0.723 -2.5,0.472 -2.538,0.189 -2.538,-0.12 l 0,-0.027 c 0,-0.305 0.038,-0.582 0.106,-0.825 0.068,-0.242 0.166,-0.449 0.286,-0.616 0.12,-0.166 0.26,-0.292 0.415,-0.373 0.154,-0.079 0.321,-0.114 0.494,-0.098 0.172,0.015 0.336,0.079 0.485,0.185 0.148,0.106 0.281,0.252 0.392,0.432 0.112,0.18 0.201,0.394 0.264,0.637 C -0.034,-0.563 0,-0.293 0,0 m -0.018,6.087 1.383,-0.066 0,-9.371 -1.383,-0.164 0,1.013 c -0.087,-0.173 -0.182,-0.337 -0.287,-0.487 -0.106,-0.151 -0.223,-0.288 -0.352,-0.405 -0.13,-0.119 -0.273,-0.218 -0.432,-0.293 -0.16,-0.077 -0.335,-0.129 -0.529,-0.152 -0.309,-0.037 -0.618,0.009 -0.908,0.139 -0.293,0.131 -0.567,0.348 -0.802,0.648 -0.238,0.303 -0.435,0.689 -0.574,1.159 -0.14,0.471 -0.219,1.024 -0.219,1.655 0,0.637 0.078,1.203 0.216,1.695 0.137,0.489 0.333,0.901 0.569,1.233 0.234,0.329 0.507,0.577 0.801,0.742 0.291,0.164 0.603,0.246 0.917,0.244 0.198,-10e-4 0.377,-0.033 0.538,-0.089 0.161,-0.056 0.304,-0.136 0.434,-0.234 0.128,-0.097 0.244,-0.211 0.348,-0.337 0.103,-0.125 0.195,-0.261 0.28,-0.401 l 0,3.471 z"
           inkscape:connector-curvature="0"
           id="path10971"
           style="fill:#ffffff;fill-opacity:1;fill-rule:nonzero;stroke:none" />
      </g>
      <g
         transform="translate(521.2191,74.648)"
         id="g10973">
        <path
           d="m 0,0 0,7.795 1.687,-0.006 0,-7.59 L 0,0 z"
           inkscape:connector-curvature="0"
           id="path10975"
           style="fill:#ffffff;fill-opacity:1;fill-rule:nonzero;stroke:none" />
      </g>
      <g
         transform="translate(521.1737,85.2663)"
         id="g10977">
        <path
           d="m 0,0 1.776,-0.084 0,-1.911 L 0,-1.965 0,0 z"
           inkscape:connector-curvature="0"
           id="path10979"
           style="fill:#ffffff;fill-opacity:1;fill-rule:nonzero;stroke:none" />
      </g>
      <g
         transform="translate(519.0516,78.4069)"
         id="g10981">
        <path
           d="M 0,0 0,0.029 C 0,0.363 -0.046,0.668 -0.128,0.936 -0.21,1.205 -0.33,1.437 -0.477,1.628 -0.625,1.819 -0.802,1.969 -0.997,2.069 -1.194,2.17 -1.41,2.221 -1.636,2.216 -1.864,2.21 -2.083,2.148 -2.285,2.035 -2.488,1.922 -2.672,1.758 -2.828,1.551 -2.985,1.342 -3.113,1.09 -3.202,0.802 -3.291,0.514 -3.34,0.19 -3.34,-0.162 l 0,-0.03 c 0,-0.352 0.049,-0.67 0.138,-0.949 0.089,-0.278 0.217,-0.515 0.374,-0.705 0.156,-0.19 0.34,-0.333 0.543,-0.423 0.202,-0.089 0.421,-0.126 0.649,-0.105 0.226,0.02 0.442,0.095 0.639,0.218 0.195,0.121 0.372,0.289 0.52,0.496 0.147,0.207 0.267,0.453 0.349,0.732 C -0.046,-0.65 0,-0.338 0,0 M -1.14,4.201 C -0.749,4.199 -0.366,4.104 -0.014,3.922 0.334,3.742 0.653,3.477 0.923,3.131 1.191,2.787 1.411,2.364 1.563,1.862 1.715,1.364 1.801,0.786 1.801,0.131 1.801,-0.53 1.717,-1.122 1.567,-1.642 1.416,-2.165 1.198,-2.616 0.932,-2.991 0.664,-3.37 0.346,-3.673 -0.004,-3.893 c -0.353,-0.223 -0.739,-0.362 -1.136,-0.41 -0.257,-0.031 -0.49,-0.024 -0.703,0.015 -0.215,0.038 -0.409,0.109 -0.587,0.202 -0.177,0.093 -0.338,0.211 -0.484,0.344 -0.146,0.134 -0.279,0.283 -0.399,0.441 l 0,-1.106 -2.104,-0.248 0,11.872 2.104,-0.1 0,-4.277 c 0.124,0.198 0.259,0.384 0.408,0.55 0.149,0.166 0.311,0.312 0.49,0.433 0.178,0.12 0.371,0.216 0.584,0.281 0.211,0.064 0.441,0.099 0.691,0.097"
           inkscape:connector-curvature="0"
           id="path10983"
           style="fill:#ffffff;fill-opacity:1;fill-rule:nonzero;stroke:none" />
      </g>
    </g>
  </g>
</svg>
